X: 53
T: the Rose in the Heather
C:
%D:
R: jig
B: PC2 p.174
S: Fiddle Hell Online 2021-10-13 Portland Collection Jam
Z: 2022 John Chambers <jc:trillian.mit.edu> (slightly reformatted)
M: 6/8
L: 1/8
K: D
% = = = = = = = = = =
"^A"|:\
"D"F2F "A"EFE | "D"DFA BAF | ABd ede | "Bm"fdB "A"AFE |
"D"~F3 "A"EFE | "D"DFA BAF | "G"AdB AFE | "A"FDC "D"D3 :|
"^B"|:\
"D"fdB ABd | faa afa | "Em"~g3 fed | "A"Bee efg |
"D"fdB ABd | faa afa | "G"baf gfe | "A"fdc "D"d3 :|


